X:675
T: Take her Out and Air Her
T: Tabhair Amach agus Taispe\'ain don Saol \'i
S: B.Breathnach:"Ceol Rince na hEireann" IV/135
Z: B.Black
L: 1/8
M: 4/4
R: reel
K: D
(3ABc|d2 AG FD D2|E2 BE GABc|d2 AG FDDg|fdec d2 (3ABc|
d2 AG FD D2|E2 BE GABc|d2 fd Beeg|fdec d2 :|
d2|fd (3ddd adfd|(3cBA eA cdeg|fd (3ddd adfd|\
ef (3gfe d2 d2|
fd (3ddd adfd|(3cBA eA cdeg|fede fg a2 ba (3gfe d2 :|
